X:1
T: Gasp\'e Reel
I: Gaspe ReelR-30DreelSet 3
C: R-30
C: French Canadian
M: C|
Z: Transcribed to abc by Mary Lou Knack
R: reel
K: D
"D"f2ef e2dB| AFAF B2A2| "A7"g2fg f2ed| BABc (3BcBA2|
"D"f2ef e2dB| AFAF B2A2| "A7"g2fg f2ed| B2c2 "D"d4 :|
|:\
"A7"e2f2 g2fe| "D"f2g2 a4| "A7"e2f2 g2e2| "Em"BABc "A7"(3BcBA2|
"A7"e2f2 g2fe| "D"f2g2 a4| "A7"e2f2 gfed| B2c2 "D"d4 :|
%%text 9/1/98.  Set 3
